src/img/icons/logo.svg

<svg viewBox="0 0 123 37" fill="none" xmlns="http://www.w3.org/2000/svg">
<path d="M27.2233 5.28613C25.4794 8.57823 23.8152 17.0309 31.1097 24.5049C33.7505 21.628 36.6703 13.7566 27.2233 5.28613Z" fill="black"/>
<path d="M33.0888 32.1922C31.9259 28.3687 33.9545 18.959 50.8559 8.53833C49.6068 16.7038 44.2013 32.1922 33.0888 32.1922Z" fill="black"/>
<path d="M29.1523 33.2045C10.5296 35.2909 -0.373246 14.6061 0.252769 3.32202C2.03987 3.62166 11.6194 7.32961 21.1609 16.7574C30.233 27.6069 32.9387 32.7804 29.1523 33.2045Z" fill="black"/>
<path d="M70.2282 21.0938C70.2282 22.4563 69.7244 23.4923 68.7167 24.2019C67.7233 24.8973 66.3679 25.245 64.6506 25.245H62.8198V31.5251H60.7548V17.4322H65.3318C66.7653 17.4322 67.9361 17.7586 68.8444 18.4115C69.7669 19.0643 70.2282 19.9584 70.2282 21.0938ZM62.8198 24.6277H64.7145C65.3815 24.6277 65.9492 24.5 66.4176 24.2445C66.9001 23.989 67.2478 23.6626 67.4607 23.2652C67.8439 22.5556 68.0355 21.8673 68.0355 21.2002C68.0355 20.8738 67.9503 20.4835 67.78 20.0294C67.4394 19.0927 66.7369 18.4824 65.6725 18.1986C64.6506 18.1986 63.6997 18.3192 62.8198 18.5605V24.6277ZM73.4016 16.9851V31.5251H71.6133V16.9851H73.4016ZM80.6299 29.2686V27.0759C79.608 27.1468 78.7707 27.3739 78.1178 27.7571C77.465 28.1403 77.1386 28.5519 77.1386 28.9918C77.1386 29.4318 77.2521 29.815 77.4792 30.1414C77.7063 30.4536 77.9972 30.6736 78.352 30.8013C78.8204 30.7162 79.3171 30.482 79.8422 30.0988C80.3673 29.7156 80.6299 29.4389 80.6299 29.2686ZM82.3755 28.6938C82.3755 29.7014 82.7445 30.4678 83.4825 30.9929L82.3755 31.8019L80.6512 30.2478C79.53 31.2697 78.4939 31.7806 77.5431 31.7806C76.9186 31.7806 76.3793 31.5819 75.9251 31.1845C75.4852 30.7871 75.2652 30.2904 75.2652 29.6943C75.2652 29.0841 75.4426 28.5802 75.7974 28.1829C76.1664 27.7855 76.6489 27.4803 77.245 27.2675C78.2669 26.8843 79.3951 26.643 80.6299 26.5436V24.5425C80.6299 23.3646 79.9487 22.7756 78.5862 22.7756C77.8056 22.7756 76.8831 22.9459 75.8187 23.2865L75.6271 22.7543C75.9109 22.5272 76.4006 22.286 77.096 22.0305C77.8056 21.775 78.4797 21.6473 79.1184 21.6473C79.7571 21.6473 80.2893 21.7325 80.715 21.9028C81.155 22.0731 81.4743 22.2647 81.673 22.4776C81.8859 22.6904 82.0491 22.9814 82.1627 23.3504C82.2762 23.7194 82.3401 24.0103 82.3542 24.2232C82.3684 24.4361 82.3755 24.7199 82.3755 25.0747V28.6938ZM87.0271 23.2652C87.6232 22.6975 88.1412 22.286 88.5812 22.0305C89.0353 21.775 89.5675 21.6473 90.1778 21.6473C90.7881 21.6473 91.3487 21.8886 91.8596 22.3711C92.3847 22.8536 92.6473 23.6839 92.6473 24.8619V31.5251H90.8378V25.0747C90.8378 24.3793 90.71 23.8613 90.4546 23.5207C90.2133 23.1659 89.7875 22.9885 89.1773 22.9885C88.5812 22.9885 87.8858 23.3859 87.091 24.1806V31.5251H85.2815V24.8406C85.2815 23.8755 84.9196 23.102 84.1958 22.5201L85.2815 21.7112L87.0271 23.2652ZM97.5046 29.6518C97.5046 30.0775 97.5897 30.3969 97.7601 30.6097C97.9304 30.8226 98.2142 30.9291 98.6116 30.9291C99.009 30.9291 99.4844 30.8226 100.038 30.6097V31.2058C99.2148 31.589 98.4768 31.7806 97.8239 31.7806C97.1711 31.7806 96.6531 31.6032 96.2699 31.2484C95.9009 30.8794 95.7164 30.3117 95.7164 29.5453V22.6691L93.992 22.3285V21.9028H95.7164V21.1364L97.5046 19.8378V21.9028H100.038V22.6691H97.5046V29.6518ZM108.474 21.9028H109.283L105.642 31.8445C105.174 33.1502 104.472 34.2004 103.535 34.9952C102.598 35.7899 101.569 36.1944 100.448 36.2086L100.661 35.1442C102.577 35.0732 104.067 33.8314 105.132 31.4187L100.81 21.9028H102.705L105.962 29.1196L108.474 21.9028ZM110.359 17.1129H112.084V18.603L111.466 22.3498H110.956L110.359 18.603V17.1129ZM118.339 26.2243L122.15 31.5251H120.042L117.296 27.5016L114.358 31.5251H113.336L116.87 27.0333L113.4 21.9028H115.508L117.935 25.7773L120.787 21.9028H121.83L118.339 26.2243Z" fill="black"/>
</svg>

<svg xmlns="http://www.w3.org/2000/svg" fill="none" viewBox="0 0 123 37"><path fill="#000" d="M27.223 5.286c-1.744 3.292-3.408 11.745 3.887 19.219 2.64-2.877 5.56-10.748-3.887-19.219ZM33.089 32.192c-1.163-3.823.866-13.233 17.767-23.654-1.25 8.166-6.655 23.654-17.767 23.654ZM29.152 33.205C10.53 35.29-.373 14.606.252 3.322c1.788.3 11.367 4.008 20.909 13.435 9.072 10.85 11.778 16.023 7.991 16.448ZM70.228 21.094c0 1.362-.504 2.398-1.511 3.108-.994.695-2.35 1.043-4.066 1.043H62.82v6.28h-2.065V17.432h4.577c1.433 0 2.604.327 3.512.98.923.652 1.384 1.546 1.384 2.682Zm-7.408 3.534h1.895c.666 0 1.234-.128 1.703-.384.482-.255.83-.581 1.043-.979.383-.71.575-1.398.575-2.065 0-.326-.086-.716-.256-1.17-.34-.937-1.043-1.548-2.108-1.831-1.021 0-1.972.12-2.852.361v6.068Zm10.582-7.643v14.54h-1.789v-14.54h1.789ZM80.63 29.27v-2.193c-1.022.07-1.86.298-2.512.681-.653.383-.98.795-.98 1.235 0 .44.114.823.341 1.15.227.312.518.532.873.66.468-.086.965-.32 1.49-.703.525-.383.788-.66.788-.83Zm1.746-.575c0 1.007.368 1.774 1.106 2.299l-1.106.809-1.725-1.554c-1.121 1.022-2.157 1.533-3.108 1.533a2.376 2.376 0 0 1-1.618-.596 1.925 1.925 0 0 1-.66-1.49c0-.61.178-1.115.532-1.512.37-.398.852-.703 1.448-.916 1.022-.383 2.15-.624 3.385-.723v-2.002c0-1.177-.681-1.766-2.044-1.766-.78 0-1.703.17-2.767.51l-.192-.532c.284-.227.774-.468 1.469-.724.71-.255 1.384-.383 2.022-.383.64 0 1.171.086 1.597.256.44.17.76.362.958.575.213.212.376.503.49.872.113.37.177.66.191.873.014.213.022.497.022.852v3.619Zm4.651-5.429c.596-.567 1.114-.979 1.554-1.235.454-.255.986-.383 1.597-.383.61 0 1.17.242 1.682.724.525.483.787 1.313.787 2.49v6.664h-1.81v-6.45c0-.696-.127-1.214-.382-1.554-.242-.355-.668-.533-1.278-.533-.596 0-1.291.398-2.086 1.193v7.344h-1.81v-6.684c0-.966-.361-1.739-1.085-2.32l1.085-.81 1.746 1.554Zm10.478 6.387c0 .425.085.745.255.958.17.213.454.32.852.32.397 0 .872-.107 1.426-.32v.596c-.823.383-1.561.575-2.214.575s-1.17-.178-1.554-.533c-.37-.369-.554-.936-.554-1.703V22.67l-1.724-.34v-.426h1.724v-.767l1.789-1.298v2.065h2.533v.766h-2.533v6.983Zm10.969-7.75h.809l-3.641 9.942c-.468 1.306-1.17 2.356-2.107 3.151-.937.795-1.966 1.2-3.087 1.214l.213-1.065c1.916-.07 3.406-1.313 4.471-3.725l-4.322-9.516h1.895l3.257 7.217 2.512-7.217Zm1.885-4.79h1.725v1.491l-.618 3.747h-.51l-.597-3.747v-1.49Zm7.98 9.112 3.811 5.301h-2.108l-2.746-4.023-2.938 4.023h-1.022l3.534-4.492-3.47-5.13h2.108l2.427 3.874 2.852-3.874h1.043l-3.491 4.321Z"/></svg>
